svgs/regular/hourglass-clock.svg

<svg xmlns="http://www.w3.org/2000/svg" viewBox="0 0 576 512"><!--! Font Awesome Pro 6.2.0 by @fontawesome - https://fontawesome.com License - https://fontawesome.com/license (Commercial License) Copyright 2022 Fonticons, Inc. --><path d="M0 24C0 10.75 10.75 0 24 0H360C373.3 0 384 10.75 384 24C384 37.25 373.3 48 360 48H352V66.98C352 107.3 335.1 145.1 307.5 174.5L225.9 256L269.7 299.8C260.9 320.8 256 343.8 256 368C256 427.5 285.6 480.1 330.8 512H24C10.75 512 0 501.3 0 488C0 474.7 10.75 464 24 464H32V445C32 404.7 48.01 366 76.52 337.5L158.1 256L76.52 174.5C48.01 145.1 32 107.3 32 66.98V47.1H24C10.75 47.1 0 37.25 0 23.1V24zM99.78 128H284.2C296.1 110.4 304 89.03 304 66.98V48H80V66.98C80 89.03 87 110.4 99.78 128H99.78zM576 368C576 447.5 511.5 512 432 512C352.5 512 288 447.5 288 368C288 288.5 352.5 224 432 224C511.5 224 576 288.5 576 368zM415.1 304V368C415.1 376.8 423.2 384 431.1 384H480C488.8 384 496 376.8 496 368C496 359.2 488.8 352 480 352H447.1V304C447.1 295.2 440.8 288 431.1 288C423.2 288 415.1 295.2 415.1 304V304z"/></svg>

<svg xmlns="http://www.w3.org/2000/svg" viewBox="0 0 576 512"><!--! Font Awesome Pro 6.3.0 by @fontawesome - https://fontawesome.com License - https://fontawesome.com/license (Commercial License) Copyright 2023 Fonticons, Inc. --><path d="M0 24C0 10.7 10.7 0 24 0H360c13.3 0 24 10.7 24 24s-10.7 24-24 24h-8V67c0 40.3-16 79-44.5 107.5L225.9 256l43.8 43.8c-8.8 21-13.7 44-13.7 68.2c0 59.5 29.6 112.1 74.8 144H24c-13.3 0-24-10.7-24-24s10.7-24 24-24h8V445c0-40.3 16-79 44.5-107.5L158.1 256 76.5 174.5C48 146 32 107.3 32 67V48H24C10.7 48 0 37.3 0 24zM99.8 128H284.2C297 110.4 304 89 304 67V48H80V67c0 22.1 7 43.4 19.8 61zM288 368a144 144 0 1 1 288 0 144 144 0 1 1 -288 0zm144-80c-8.8 0-16 7.2-16 16v64c0 8.8 7.2 16 16 16h48c8.8 0 16-7.2 16-16s-7.2-16-16-16H448V304c0-8.8-7.2-16-16-16z"/></svg>
